dist/svgs/filter.svg

<!-- Generated by IcoMoon.io -->
<svg version="1.1" xmlns="http://www.w3.org/2000/svg" width="24" height="24" viewBox="0 0 24 24">
<title>filter</title>
<path d="M21 0h-18c-0.6 0-1 0.4-1 1v4c0 0.3 0.1 0.6 0.3 0.8l6.7 5.7v10.5c0 0.3 0.2 0.7 0.5 0.9 0.1 0.1 0.3 0.1 0.5 0.1s0.3 0 0.4-0.1l4-2c0.4-0.2 0.6-0.5 0.6-0.9v-8.5l6.7-5.7c0.2-0.2 0.3-0.5 0.3-0.8v-4c0-0.6-0.4-1-1-1zM20 4.5l-6.7 5.7c-0.2 0.2-0.3 0.5-0.3 0.8v8.4l-2 1v-9.4c0-0.3-0.1-0.6-0.3-0.8l-6.7-5.7v-2.5h16v2.5z"></path>
</svg>

<svg xmlns="http://www.w3.org/2000/svg" width="24" height="24" viewBox="0 0 24 24"><title>filter</title><path d="M21 0H3c-.6 0-1 .4-1 1v4c0 .3.1.6.3.8L9 11.5V22c0 .3.2.7.5.9.1.1.3.1.5.1s.3 0 .4-.1l4-2c.4-.2.6-.5.6-.9v-8.5l6.7-5.7c.2-.2.3-.5.3-.8V1c0-.6-.4-1-1-1zm-1 4.5l-6.7 5.7c-.2.2-.3.5-.3.8v8.4l-2 1V11c0-.3-.1-.6-.3-.8L4 4.5V2h16v2.5z"/></svg>
